!!!COM: Gaspar van Weerbeke
!!!CDT: ~1450-~1517
!!!OPR: Missa brevis
!!!OTL: Gloria
!!!AGN: Mass
!!!SCT: Gas0201b
!!!SCA: Gas0201b
!!!voices: 4
**kern	**text	**kern	**text	**kern	**text	**kern	**text
*part4	*part4	*part3	*part3	*part2	*part2	*part1	*part1
*staff4	*staff4	*staff3	*staff3	*staff2	*staff2	*staff1	*staff1
*I"Bassus	*	*I"Tenor	*	*I"Altus	*	*I"Superius	*
*I'B	*	*I'T	*	*I'A	*	*I'S	*
*clefF4	*	*clefGv2	*	*clefGv2	*	*clefG2	*
*k[b-]	*	*k[b-]	*	*k[b-]	*	*k[b-]	*
*M2/2	*	*M2/2	*	*M2/2	*	*M2/2	*
*met(C|)	*	*met(C|)	*	*met(C|)	*	*met(C|)	*
=1	=1	=1	=1	=1	=1	=1	=1
2G	Et	2G	Et	2d	Et	2g	Et
4G	in	4G	in	4d	in	4g)))	in
[4G	ter-	[4B-y	ter-	[4d	ter-	[4g	ter-
=2	=2	=2	=2	=2	=2	=2	=2
4G]	.	4B-]	.	4d]	.	4g]	.
4C	-ra	4c	-ra	4e-j	-ra	4g	-ra
2D	pax	2A	pax	2d	pax	2f	pax
=3	=3	=3	=3	=3	=3	=3	=3
4G	ho-	4B-y	ho-	4B-y	ho-	4g	ho-
2F	-mi-	2c	-mi-	2A	-mi-	2a	-mi-
4F	-ni-	4A	-ni-	4A	-ni-	4f	-ni-
=4	=4	=4	=4	=4	=4	=4	=4
4.E-X	-bus	4.G	-bus	4.B-y	-bus	4.g	-bus
8D	.	8A	.	8c	.	8f	.
2BB-y	.	2B-y	.	8dL	.	2d	.
.	.	.	.	8e-iJ	.	.	.
.	.	.	.	[4f	.	.	.
=5	=5	=5	=5	=5	=5	=5	=5
8BB-yL	bo-	2B-y	bo-	4f]	.	8dL	bo-
8C	.	.	.	.	.	8e-i	.
8D	.	.	.	4d	bo-	8f	.
8E-iJ	.	.	.	.	.	8gJ	.
4F	.	4A	-ne	4c	.	4a	.
4G	-ne	4G	.	4B-y	-ne	4b-y	-ne
!!LO:LB:g=original
=6	=6	=6	=6	=6	=6	=6	=6
8FL	vo-	4c	vo-	2f	vo-	4a	vo-
8E-i	.	.	.	.	.	.	.
8D	.	2d	-lun-	.	.	2b-y	-lun-
8CJ	.	.	.	.	.	.	.
4.BB-y	-lun-	.	.	4.f	-lun-	.	.
.	.	8cL	.	.	.	8aL	.
8C	.	8B-yJ	.	8e-i	.	8gJ	.
=7	=7	=7	=7	=7	=7	=7	=7
4D	-ta-	4A	.	4d	-ta-	4f#i	.
4E-i	.	4G	.	4c	.	2g	-ta-
2D	-tis.	2A	-ta-	4d	-tis.	.	.
.	.	.	.	4d	Lau-	4f#i	.
=8	=8	=8	=8	=8	=8	=8	=8
4r	.	2G	-tis.	4d	-da-	4g	-tis.
4B-y	Lau-	.	.	4d	-mus	4dd	Lau-
4B-y	-da-	4r	.	4g	te.	4dd	-da-
4B-y	-mus	4g	Lau-	4d	Be-	4dd	-mus
=9	=9	=9	=9	=9	=9	=9	=9
4G	te.	4g	-da-	4d	-ne-	4b-y	te.
4G	Be-	4g	-mus	4d	-di-	4b-y	Be-
4A	-ne-	4e	te.	4c	-ci-	4cc	-ne-
4A	-di-	4e	Be-	4c	-mus	4cc	-di-
=10	=10	=10	=10	=10	=10	=10	=10
4D	-ci-	4f	-ne-	2A	te.	4dd	-ci-
4D	-mus	4f	-di-	.	.	4dd	-mus
2G	te.	4g	-ci-	4G	.	2b-y	te.
.	.	4g	-mus	4g	Ad-	.	.
=11	=11	=11	=11	=11	=11	=11	=11
4C	Ad-	2e	te.	4g	-o-	4r	.
4C	-o-	.	.	4g	-ra-	4cc	Ad-
4.G	-ra-	4d	Ad-	4g	-mus	4b-y	-o-
.	.	4d	-o-	[4d	te.	[4dd	-ra-
8F	.	.	.	.	.	.	.
!!LO:LB:g=original
=12	=12	=12	=12	=12	=12	=12	=12
4D	.	4f	-ra-	2d]	.	4dd]	.
4G	-mus	4g	-mus	.	.	4b-y	-mus
[2D	te.	[2f	te.	2d	.	[2a	te.
=13	=13	=13	=13	=13	=13	=13	=13
4D]	.	4f]	.	4r	.	4a]	.
4D	Glo-	4f	Glo-	4d	Glo-	4a	Glo-
4D	-ri-	4f	-ri-	4d	-ri-	4a	-ri-
4D	-fi-	4f	-fi-	4d	-fi-	4a	-fi-
=14	=14	=14	=14	=14	=14	=14	=14
4.G	-ca-	4g	-ca-	4.B-y	-ca-	4.b-y	-ca-
.	.	2d	.	.	.	.	.
8F	.	.	.	8G	.	8cc	.
4D	.	.	.	8AL	.	4dd	.
.	.	.	.	8B-yJ	.	.	.
[4C	.	4g	.	[4c	.	[4ee	.
=15	=15	=15	=15	=15	=15	=15	=15
4C]	.	4a	.	4c]	.	4ee]	.
4D	.	4f	.	4.A	-mus	2dd	.
2A	-mus	2e	-mus	.	.	.	.
.	.	.	.	8B-y	.	.	.
.	.	.	.	4c	.	4cc#i	-mus
=16	=16	=16	=16	=16	=16	=16	=16
*	*	*	*	*lig	*	*	*
2D	te.	2d	te.	2A	te.	2dd	te.
2r	.	4r	.	2G	.	2r	.
.	.	4g	Gra-	.	.	.	.
*	*	*	*	*Xlig	*	*	*
=17	=17	=17	=17	=17	=17	=17	=17
1r	.	4f	-ti-	1r	.	4r	.
.	.	4d	-as	.	.	4dd	Gra-
.	.	4e	a-	.	.	4cc	-ti-
.	.	4f	-gi-	.	.	4a	-as
!!LO:PB:g=original
=18	=18	=18	=18	=18	=18	=18	=18
1r	.	4d	-mus	1r	.	4b-y	a-
.	.	4e	.	.	.	4cc	-gi-
.	.	4.f	ti-	.	.	4a	-mus
.	.	.	.	.	.	4b-y	.
.	.	8e	.	.	.	.	.
=19	=19	=19	=19	=19	=19	=19	=19
4r	.	2c	-bi.	2r	.	4cc	ti-
4c	Pro-	.	.	.	.	8b-yL	.
.	.	.	.	.	.	8aJ	.
4B-y	-pter	2r	.	4r	.	2g	-bi
4G	ma-	.	.	4g	Pro-	.	.
=20	=20	=20	=20	=20	=20	=20	=20
4A	-gnam	1r	.	4f	-pter	1r	.
4B-y	glo-	.	.	4d	ma-	.	.
4G	-ri-	.	.	4e	-gnam	.	.
4A	-am	.	.	4f	glo-	.	.
=21	=21	=21	=21	=21	=21	=21	=21
4B-y	tu-	1r	.	4d	-ri-	1r	.
8AL	.	.	.	4e	-am	.	.
8GJ	.	.	.	.	.	.	.
2F	-am.	.	.	4.f	tu-	.	.
.	.	.	.	8e	.	.	.
=22	=22	=22	=22	=22	=22	=22	=22
1r	.	2r	.	2c	-am.	4r	.
.	.	.	.	.	.	4cc	Do-
.	.	4r	.	2r	.	4b-y	-mi-
.	.	4g	Do-	.	.	4g	-ne
!!LO:LB:g=original
=23	=23	=23	=23	=23	=23	=23	=23
1r	.	4f	-mi-	1r	.	2a	De-
.	.	4d	-ne	.	.	.	.
.	.	2e-i	De-	.	.	4g	-us,
.	.	.	.	.	.	4cc	Rex
=24	=24	=24	=24	=24	=24	=24	=24
1r	.	4d	-us,	1r	.	4b-y	ce-
.	.	4g	Rex	.	.	4g	.
.	.	4f	ce-	.	.	4a	.
.	.	4d	.	.	.	4f	.
=25	=25	=25	=25	=25	=25	=25	=25
1r	.	8e-iL	-le-	1r	.	8gL	.
.	.	8d	.	.	.	8fJ	.
.	.	8c	.	.	.	2b-y	-le-
.	.	8B-yJ	.	.	.	.	.
.	.	2c	.	.	.	.	.
.	.	.	.	.	.	4a	.
=26	=26	=26	=26	=26	=26	=26	=26
4r	.	2B-y	-stis.	2r	.	2b-y	-stis.
4G	De-	.	.	.	.	.	.
4F	-us	2r	.	4r	.	2r	.
4D	Pa-	.	.	4d	De-	.	.
=27	=27	=27	=27	=27	=27	=27	=27
4E-i	-ter	1r	.	4c	-us	1r	.
4F	.	.	.	4A	Pa-	.	.
4D	.	.	.	2B-y	-ter	.	.
4G	om-	.	.	.	.	.	.
=28	=28	=28	=28	=28	=28	=28	=28
4F	.	1r	.	4A	om-	1r	.
4D	.	.	.	4F	.	.	.
8E-XL	-ni-	.	.	8GL	-ni-	.	.
8D	.	.	.	8FJ	.	.	.
8C	.	.	.	[4B-y	-po-	.	.
8BB-yJ	.	.	.	.	.	.	.
!!LO:LB:g=original
=29	=29	=29	=29	=29	=29	=29	=29
2C	-po-	4r	.	4B-]	.	1r	.
.	.	4e-X	Do-	4A	.	.	.
2BB-y	-tens.	4d	-mi-	2B-y	-tens.	.	.
.	.	4B-y	.	.	.	.	.
=30	=30	=30	=30	=30	=30	=30	=30
1r	.	2c	-ne	1r	.	4r	.
.	.	.	.	.	.	4ee-i	Do-
.	.	4B-y	Fi-	.	.	4dd	-mi-
.	.	4G	.	.	.	4b-y	.
=31	=31	=31	=31	=31	=31	=31	=31
1r	.	4A	-li	1r	.	2cc	-ne
.	.	4F	.	.	.	.	.
.	.	8GL	u-	.	.	4b-y	Fi-
.	.	8A	.	.	.	.	.
.	.	8B-y	.	.	.	8aL	.
.	.	8cJ	.	.	.	8gJ	.
=32	=32	=32	=32	=32	=32	=32	=32
2D	Fi-	4.d	.	2A	U-	2f	-li
.	.	8e	.	.	.	.	.
2D	-li	4f	.	4A	-ni-	8dL	u-
.	.	.	.	.	.	8e	.
.	.	4d	-ni-	[4A	-ge-	8f	.
.	.	.	.	.	.	8gJ	.
=33	=33	=33	=33	=33	=33	=33	=33
2r	.	4f	-ge-	4A]	.	4a	.
.	.	4g	.	4G	-ni-	4b-y	.
4D	u-	4f	.	4A	-te,	4a	.
[4G	-ni-	4g	.	4G	.	[4b-y	-ni-
=34	=34	=34	=34	=34	=34	=34	=34
*	*	*lig	*	*	*	*	*
8GL]	.	2d	-ni-	2g	Je-	8b-L]	.
8AJ	.	.	.	.	.	8aJ	.
4B-y	-ge-	.	.	.	.	2dd	-ge-
2A	-ni-	2e	.	2a	.	.	.
.	.	.	.	.	.	4cc#i	-ni-
*	*	*Xlig	*	*	*	*	*
!!LO:LB:g=original
=35	=35	=35	=35	=35	=35	=35	=35
2B-y	-te	2d	-te	2f	-su	2dd	-te
2G	Je-	2d	Je-	4g	Chri-	2b-y	Je-
.	.	.	.	[4d	.	.	.
=36	=36	=36	=36	=36	=36	=36	=36
2D	-su	2f	-su	2d]	.	2a	-su
2G	Chri-	2g	Chri-	2d	-ste.	2b-y	Chri-
=37	=37	=37	=37	=37	=37	=37	=37
2D	-ste.	2f	-ste.	2d	Do-	2a	-ste.
2r	.	4r	.	4B-y	-mi-	2r	.
.	.	4g	Do-	4G	-ne	.	.
=38	=38	=38	=38	=38	=38	=38	=38
4r	.	4d	-mi-	2B-y	De-	4r	.
4G	Do-	4d	-ne	.	.	4dd	Do-
4F	-mi-	2f	De-	2c	-us,	4a	-mi-
4F	-ne	.	.	.	.	4a	-ne
=39	=39	=39	=39	=39	=39	=39	=39
*lig	*	*	*	*	*	*	*
2C	De-	2e-j	-us,	4r	.	2cc	De-
.	.	.	.	4c	A-	.	.
2G	.	4r	.	4d	.	2b-y	-us.
.	.	4d	A-	4d	-gnus	.	.
*Xlig	*	*	*	*	*	*	*
=40	=40	=40	=40	=40	=40	=40	=40
2D	-us,	4f	.	4.d	De-	4r	.
.	.	4f	-gnus	.	.	4a	A-
.	.	.	.	8c	.	.	.
2r	.	4.f	De-	2A	-i,	4cc	.
.	.	.	.	.	.	4cc	-gnus
.	.	8e-j	.	.	.	.	.
!!LO:PB:g=original
=41	=41	=41	=41	=41	=41	=41	=41
1r	.	4.c	.	1r	.	4.cc	De-
.	.	8d	.	.	.	8b-y	.
.	.	8e-jL	.	.	.	4.g	.
.	.	8fJ	.	.	.	.	.
.	.	[4g	.	.	.	.	.
.	.	.	.	.	.	8a	.
=42	=42	=42	=42	=42	=42	=42	=42
2r	.	4g]	.	2r	.	8b-yL	.
.	.	.	.	.	.	8ccJ	.
.	.	4d	-i,	.	.	2dd	-i,
2D	Fi-	2f	Fi-	2a	Fi-	.	.
.	.	.	.	.	.	[4a	Fi-
=43	=43	=43	=43	=43	=43	=43	=43
4F	-li-	4c	-li-	4f	-li-	4a]	.
4C	.	4e-j	.	2g	-us	4cc	-li-
4G	-us	2d	-us	.	.	4b-y	-us
*	*	*	*	*	*	*lig	*
4D	.	.	.	[4f	Pa-	[4a	Pa-
=44	=44	=44	=44	=44	=44	=44	=44
4F	Pa-	4c	Pa-	8fL]	.	4a]	.
.	.	.	.	8e-jJ	.	.	.
4G	.	4B-y	.	2.d	.	2g	.
2D	.	2A	.	.	.	.	.
.	.	.	.	.	.	4f#i	.
*	*	*	*	*	*	*Xlig	*
=45	=45	=45	=45	=45	=45	=45	=45
0G	-tris.	0G	-tris.	0d	-tris.	0g	-tris.
!!LO:LB:g=original
=46||	=46||	=46||	=46||	=46||	=46||	=46||	=46||
*M2/2	*	*M2/2	*	*M2/2	*	*M2/2	*
*met(C|)	*	*met(C|)	*	*met(C|)	*	*met(C|)	*
2D	Qui	2d	Qui	2f	Qui	2a	Qui
4D	tol-	4d	tol-	4f	tol-	4a	tol-
[4D	-lis	[4d	-lis	[4f	-lis	[4a	-lis
=47	=47	=47	=47	=47	=47	=47	=47
4D]	.	4d]	.	4f]	.	4a]	.
4D	pec-	4d	pec-	4f	pec-	4a	pec-
4G	-ca-	4B-y	-ca-	4g	-ca-	4b-y	-ca-
4G	-ta	4B-y	-ta	4g	-ta	4b-y	-ta
=48	=48	=48	=48	=48	=48	=48	=48
2C	mun-	2c	mun-	2e-j	mun-	2g	mun-
2D	-di,	2A	-di,	2d	-di,	2f	-di,
=49	=49	=49	=49	=49	=49	=49	=49
4G	mi-	4G	mi-	4d	mi-	4b-y	mi-
4F	-se-	4A	-se-	4d	-se-	4a	-se-
4G	-re-	4B-y	-re-	4d	-re-	4g	-re-
4D	-re	4A	-re	4d	-re	4f	-re
=50	=50	=50	=50	=50	=50	=50	=50
4G	no-	4B-y	no-	2e-j	no-	2g	no-
4C	.	4c	.	.	.	.	.
2D	-bis.	2A	-bis.	2d	-bis.	2f	-bis.
=51	=51	=51	=51	=51	=51	=51	=51
2.E-X	Qui	1r	.	4G	Qui	1r	.
.	.	.	.	2B-y	tol-	.	.
8DL	.	.	.	4c	.	.	.
8CJ	.	.	.	.	.	.	.
=52	=52	=52	=52	=52	=52	=52	=52
4BB-y	.	1r	.	2.d	-lis	1r	.
2D	tol-	.	.	.	.	.	.
4E-i	.	.	.	8cL	.	.	.
.	.	.	.	8B-yJ	.	.	.
!!LO:LB:g=original
=53	=53	=53	=53	=53	=53	=53	=53
2.F	-lis	1r	.	4A	.	1r	.
.	.	.	.	2c	pec-	.	.
8E-iL	.	.	.	4d	.	.	.
8DJ	.	.	.	.	.	.	.
=54	=54	=54	=54	=54	=54	=54	=54
4C	.	1r	.	2.e-X	-ca-	1r	.
2E-X	pec-	.	.	.	.	.	.
4F	.	.	.	8dL	.	.	.
.	.	.	.	8cJ	.	.	.
=55	=55	=55	=55	=55	=55	=55	=55
2.G	-ca-	1r	.	4B-y	.	1r	.
.	.	.	.	2d	-ta	.	.
8FL	.	.	.	4e-j	.	.	.
8E-jJ	.	.	.	.	.	.	.
=56	=56	=56	=56	=56	=56	=56	=56
4D	-ta	1r	.	4f	.	1r	.
4.B-y	mun-	.	.	2d	mun-	.	.
8A	.	.	.	.	.	.	.
[4G	.	.	.	8cL	.	.	.
.	.	.	.	8B-yJ	.	.	.
=57	=57	=57	=57	=57	=57	=57	=57
4G]	.	1r	.	2A	.	1r	.
4F#i	.	.	.	.	.	.	.
2G	-di,	.	.	2G	-di,	.	.
=58	=58	=58	=58	=58	=58	=58	=58
2F	su-	2f	Su-	2c	su-	2a	Su-
4F	-sci-	4f	-sci-	4c	-sci-	4a	-sci-
4F	-pe	4f	-pe	4c	-pe	4a	-pe
=59	=59	=59	=59	=59	=59	=59	=59
4BB-y	de-	4d	de-	4f	de-	4b-y	de-
4BB-y	-pre-	4d	-pre-	4f	-pre-	4b-y	-pre-
4BB-y	-ca-	4d	-ca-	4f	-ca-	4b-y	-ca-
4BB-y	-ti-	4d	-ti-	4f	-ti-	4b-y	-ti-
!!LO:LB:g=original
=60	=60	=60	=60	=60	=60	=60	=60
2C	-o-	2c	-o-	2e-i	-o-	2g	-o-
4D	-nem	4A	-nem	4d	-nem	4d	-nem
*	*	*lig	*	*	*	*	*
[4E-X	no-	[4G	no-	[4c	no-	4g	.
=61	=61	=61	=61	=61	=61	=61	=61
8E-L]	.	4G]	.	4c]	.	4c	no-
8DJ	.	.	.	.	.	.	.
4BB-y	.	2F	.	2B-y	.	4d	.
2C	.	.	.	.	.	2e-i	.
*	*	*Xlig	*	*	*	*	*
.	.	4E-i	.	4A	.	.	.
=62	=62	=62	=62	=62	=62	=62	=62
1BB-y	-stram.	2F	-stram.	2.B-y	.	1d	-stram.
.	.	2r	.	.	.	.	.
.	.	.	.	4G	.	.	.
=63	=63	=63	=63	=63	=63	=63	=63
4r	.	2c	Qui	2A	-stram.	1r	.
2F	Qui	.	.	.	.	.	.
.	.	2d	se-	2r	.	.	.
[4G	se-	.	.	.	.	.	.
=64	=64	=64	=64	=64	=64	=64	=64
4G]	.	4e	-des	1r	.	1r	.
4A	-des	2c	ad	.	.	.	.
2F	ad	.	.	.	.	.	.
.	.	[4f	dex-	.	.	.	.
=65	=65	=65	=65	=65	=65	=65	=65
2B-y	dex-	4f]	.	1r	.	1r	.
.	.	8eL	-te-	.	.	.	.
.	.	8dJ	.	.	.	.	.
4G	-te-	4e	-ram	.	.	.	.
[4A	-ram	[4f	Pa-	.	.	.	.
=66	=66	=66	=66	=66	=66	=66	=66
4A]	.	4f]	.	1r	.	1r	.
4F	Pa-	2d	.	.	.	.	.
2E	.	.	.	.	.	.	.
.	.	4c#i	.	.	.	.	.
=67	=67	=67	=67	=67	=67	=67	=67
2D	-tris.	2d	-tris.	2A	Mi-	2r	.
2r	.	2r	.	4c	-se-	2a	Mi-
.	.	.	.	4d	.	.	.
!!LO:PB:g=original
=68	=68	=68	=68	=68	=68	=68	=68
1r	.	1r	.	4c	.	4cc	-se-
.	.	.	.	2B-y	-re-	2dd	-re-
.	.	.	.	8AL	.	8ccL	.
.	.	.	.	8GJ	.	8b-yJ	.
=69	=69	=69	=69	=69	=69	=69	=69
1r	.	1r	.	4F	-re	4a	-re
.	.	.	.	4.G	no-	2b-y	no-
.	.	.	.	8AL	.	.	.
.	.	.	.	8B-y	.	8aL	.
.	.	.	.	8cJ	.	8gJ	.
=70	=70	=70	=70	=70	=70	=70	=70
2r	.	2r	.	2d	-bis.	2f	-bis.
[2D	Quo-	[2A	Quo-	[2d	Quo-	[2f	Quo-
=71	=71	=71	=71	=71	=71	=71	=71
4D]	.	4A]	.	4d]	.	4f]	.
4D	-ni-	4A	-ni-	4d	-ni-	4f	-ni-
4D	-am	4A	-am	4d	-am	4f	-am
[4C	tu	[4c	tu	[4e-j	tu	[4g	tu
=72	=72	=72	=72	=72	=72	=72	=72
4C]	.	4c]	.	4e-]	.	4g]	.
4BB-y	so-	4d	so-	2f	so-	4b-y	so-
4F	-lus	[2c	-lus	.	.	4a	-lus
4C	.	.	.	[4e-j	-lus	[4g	san-
=73	=73	=73	=73	=73	=73	=73	=73
4E-j	san-	4c]	.	4e-]	.	4g]	.
4F	.	4A	san-	2.c	san-	2f	.
2C	-ctus.	2G	.	.	.	.	.
.	.	.	.	.	.	4e	.
=74	=74	=74	=74	=74	=74	=74	=74
1r	.	2F	-ctus.	4A	-ctus.	2f	-ctus.
.	.	.	.	2f	Tu	.	.
.	.	2r	.	.	.	4r	.
.	.	.	.	8e-jL	.	[4cc	Tu
.	.	.	.	8dJ	.	.	.
!!LO:LB:g=original
=75	=75	=75	=75	=75	=75	=75	=75
1r	.	1r	.	4c	.	4cc]	.
.	.	.	.	2g	so-	8b-yL	.
.	.	.	.	.	.	8aJ	.
.	.	.	.	.	.	4g	.
.	.	.	.	8fL	.	[4dd	so-
.	.	.	.	8e-jJ	.	.	.
=76	=76	=76	=76	=76	=76	=76	=76
1r	.	1r	.	4d	.	4dd]	.
.	.	.	.	2a	-lus	8ccL	.
.	.	.	.	.	.	8b-yJ	.
.	.	.	.	.	.	4a	.
.	.	.	.	8gL	.	4ff	-lus
.	.	.	.	8fJ	.	.	.
=77	=77	=77	=77	=77	=77	=77	=77
2r	.	1r	.	4.g	Do-	4ee	Do-
.	.	.	.	.	.	2dd	-mi-
.	.	.	.	8f	.	.	.
2A	Tu	.	.	2e	-mi-	.	.
.	.	.	.	.	.	4cc#i	.
=78	=78	=78	=78	=78	=78	=78	=78
4F	so-	2r	.	1d	-nus.	2dd	-nus.
2G	.	.	.	.	.	.	.
.	.	2g	Tu	.	.	2r	.
8FL	.	.	.	.	.	.	.
8EJ	.	.	.	.	.	.	.
=79	=79	=79	=79	=79	=79	=79	=79
2D	-lus	2f	so-	1r	.	2dd	Tu
2G	Al-	4d	-lus	.	.	2b-y	so-
.	.	[4e-X	Al-	.	.	.	.
=80	=80	=80	=80	=80	=80	=80	=80
2C	-tis-	4e-]	.	2g	Tu	2ee-X	-lus
.	.	8dL	.	.	.	.	.
.	.	8cJ	.	.	.	.	.
4G	.	4B-y	-tis-	4g	so-	4dd	Al-
*	*	*	*	*	*	*lig	*
4A	.	4A	-si-	4c	-lus	[4cc	-tis-
=81	=81	=81	=81	=81	=81	=81	=81
*	*	*lig	*	*	*	*	*
4G	-si-	2d	-mus,	4g	Al-	4cc]	.
4B-y	.	.	.	2f	-tis-	2b-y	.
*	*	*	*	*	*	*Xlig	*
2F	-mus,	2c	.	.	.	.	.
.	.	.	.	4f	-si-	4a	-si-
*	*	*Xlig	*	*	*	*	*
!!LO:LB:g=original
=82	=82	=82	=82	=82	=82	=82	=82
2G	Je-	4B-y	Je-	2d	-mus,	4b-y	-mus,
.	.	4d	.	.	.	4b-y	Je-
4F	-su	4c	-su	2f	Je-	4a	-su
4D	.	[4d	Chri-	.	.	[4b-y	Chri-
=83	=83	=83	=83	=83	=83	=83	=83
4.BB-y	Chri-	4d]	.	4f	-su	8b-L]	.
.	.	.	.	.	.	8aJ	.
.	.	8cL	.	2.d	Chri-	2g	.
8C	.	8B-yJ	.	.	.	.	.
2D	-ste.	2A	.	.	.	.	.
.	.	.	.	.	.	4f#i	.
=84	=84	=84	=84	=84	=84	=84	=84
*M3/2	*	*M3/2	*	*M3/2	*	*M3/2	*
*met(O)	*	*met(O)	*	*met(O)	*	*met(O)	*
!!LO:TX:t=[whole]=[whole-dot]
2r	.	1G	-ste.	1.d	-ste.	1.g	-ste.
2r	.	.	.	.	.	.	.
2G	Cum	2B-y	Cum	.	.	.	.
=85	=85	=85	=85	=85	=85	=85	=85
1G	San-	1B-y	San-	1.r	.	1.r	.
2G	-cto	2B-y	-cto	.	.	.	.
=86	=86	=86	=86	=86	=86	=86	=86
2F	Spi-	2.A	Spi-	1.r	.	1.r	.
2.A	.	.	.	.	.	.	.
.	.	4B-y	.	.	.	.	.
.	.	2c	.	.	.	.	.
4G	.	.	.	.	.	.	.
=87	=87	=87	=87	=87	=87	=87	=87
2F	.	1d	.	1.r	.	1.r	.
1E	-ri-	.	.	.	.	.	.
.	.	2c#i	-ri-	.	.	.	.
=88	=88	=88	=88	=88	=88	=88	=88
1D	-tu,	1d	-tu,	2r	.	2r	.
.	.	.	.	2r	.	2r	.
2D	in	2d	in	2d	In	2a	In
!!LO:LB:g=original
=89	=89	=89	=89	=89	=89	=89	=89
1G	glo-	1d	glo-	2.B-y	glo-	1b-y	glo-
.	.	.	.	4c	.	.	.
2G	-ri-	2B-y	-ri-	4d	.	2b-y	-ri-
.	.	.	.	4e	.	.	.
=90	=90	=90	=90	=90	=90	=90	=90
1F	-a	2.c	-a	1f	.	2.a	-a
.	.	4d	.	.	.	4b-y	.
2E	De-	2e	.	2g	-ri-	2cc	.
=91	=91	=91	=91	=91	=91	=91	=91
1D	-i	1f	De-	1a	-a	1dd	De-
2E	Pa-	2e	-i	2g	De-	2cc	-i
=92	=92	=92	=92	=92	=92	=92	=92
*	*	*lig	*	*	*	*	*
2.G	.	2d	Pa-	1g	-i	2.b-y	Pa-
.	.	2B-y	.	.	.	.	.
4F	.	.	.	.	.	4a	.
*	*	*Xlig	*	*	*	*	*
2E	.	2c	.	2G	Pa-	2g	.
=93	=93	=93	=93	=93	=93	=93	=93
1D	-tris.	1d	-tris.	2.A	-tris.	2.f	-tris.
.	.	.	.	4B-y	.	4g	.
2C	A-	2e-j	A-	2c	.	2a	.
=94	=94	=94	=94	=94	=94	=94	=94
*	*	*lig	*	*	*	*	*
4BB-y	.	2f	.	2d	.	1b-y	A-
4C	.	.	.	.	.	.	.
4D	.	2.d	.	2.f	A-	.	.
4E-j	.	.	.	.	.	.	.
2F	.	.	.	.	.	2a	.
*	*	*Xlig	*	*	*	*	*
.	.	4c	.	4e-j	.	.	.
=95	=95	=95	=95	=95	=95	=95	=95
2G	.	2B-y	.	1.d	.	1g	.
1D	.	1A	.	.	.	.	.
.	.	.	.	.	.	2f#i	.
=96	=96	=96	=96	=96	=96	=96	=96
0Gl	-men.	0Gl	-men.	0dl	-men.	0gl	-men.
==	==	==	==	==	==	==	==
*-	*-	*-	*-	*-	*-	*-	*-
!!!system-decoration: [*]
!!!YEM: ©2016 American Institute of Musicology
!!!Xfilter: gasparize
!!!RDF**kern: j = editorial accidental, optional, paren up
!!!RDF**kern: i = editorial accidental
!!!RDF**kern: l = terminal long
!!!PTL: Gaspar van Weerbeke: Collected Works. II. Masses, Part 2
!!!PPR: American Institute of Musicology
!!!PC#: Corpus Mensurabilis Musicae 106/II.2
!!!PDT: 2018
!!!PED: Kolb, Paul
!!!YEM: CC-BY-NC 4.0 (https://creativecommons.org/licenses/by-nc/4.0/legalcode)
!!!YEC: Copyright 2016, Kolb, Paul
!!!EED: Zybina, Karina
!!!EEV: 2021/09/23
